X:808
T:Reel 808
M:4/4
K:Amin
L:1/8
B,|A,AAG E2EF|GEDC B,G,G,B,|A,^G,A,B, CB,CD|EAAB GBAG|EAAG E^FGE|DB,G,A, B,CDB,|A,^G,A,B, CB,CD|EAGE D2|ED|CDC^F GFEC|B,A,G,A, B,CDB,|CB,EF GFGE|CA,B,G, A,2ED|CB,CD EFE^F|GEDC B,G,G,B,|A,B,CD EDE^F|GEDB, A,2|
